icons/desktop/16/svg/sidebar-expanded-16.svg

<svg width="16" height="16" viewBox="0 0 16 16" fill="none" xmlns="http://www.w3.org/2000/svg">
<path fill-rule="evenodd" clip-rule="evenodd" d="M2 2C0.895786 2 0 2.89579 0 4V12C0 13.1042 0.895786 14 2 14H14C15.1042 14 16 13.1042 16 12V4C16 2.89579 15.1042 2 14 2H2ZM6 12.5H14C14.2758 12.5 14.5 12.2758 14.5 12V4C14.5 3.72421 14.2758 3.5 14 3.5H6V12.5Z" fill="black"/>
</svg>

<!-- This Source Code Form is subject to the terms of the Mozilla Public
   - License, v. 2.0. If a copy of the MPL was not distributed with this
   - file, You can obtain one at http://mozilla.org/MPL/2.0/. -->
<svg xmlns="http://www.w3.org/2000/svg" width="16" height="16" fill="context-fill" fill-opacity="context-fill-opacity" viewBox="0 0 16 16">
    <path d="M2 2a2 2 0 0 0-2 2v8a2 2 0 0 0 2 2h12a2 2 0 0 0 2-2V4a2 2 0 0 0-2-2zm4 10.5h8a.5.5 0 0 0 .5-.5V4a.5.5 0 0 0-.5-.5H6z" />
</svg>
